X:1
T:Hollingside
T:Jesu, Lover of my soul
T:J B Dykes
T:77 77 D
%%score ( 1 2 ) { ( 3 4 7 ) | ( 5 6 ) }
L:1/8
Q:1/4=92
M:4/4
K:Eb
V:1 treble transpose=-2 nm="B♭ Trumpet" snm="B♭ Tpt."
V:2 treble transpose=-2 
V:3 treble nm="Pipe Organ" snm="Org."
V:4 treble 
V:7 treble 
V:5 bass 
V:6 bass 
V:1
[K:F]"^Andante"!p! A2 c2 d2 c2 | c3 B A4 | f2 e2 d2 c2 | A2 F2 G4 | A2 c2 d2 c2 | c3 B A4 | %6
 A2 B2 A2 G2 | A3 G F4 | F2 B2 A2 B2 | _e2 d2 c4 | d2 d2 =e2 f2 | B2 A2 G4 | A2 c2 d2 c2 | %13
 c3 B A4 | A2 B2 A2 G2 | A3 G F4 ||[M:4/4]!p!"^Cantabile" F4- F4 | DFEC- C4 | FG^GA DEFC | %19
 F2 =B,2 C4 | F4- F4 | DFED ^C4 | FEGF E_ED_D | A3 G F4 |!<(! F2 B2 A2 B2 | _e2 d2 c4!<)! | %26
!mf! d2 d2 e2 f2 | B2 A2 G4 |!p! A2 c2 d2 c2 | c3 B A4 | A2 B2 A2 G2 | A3 G F4 ||!p! A2 c2 d2 c2 | %33
 c3 B A4 | f2 e2 d2 c2 | A2 F2 G4 |!p! (A2 c2) d2 c2 | c3 B A4 | %38
[Q:1/4=92]"^rit" A2[Q:1/4=91]"^.5" B2[Q:1/4=90] A2[Q:1/4=87]"^.1" G2[Q:1/4=91]"^.9"[Q:1/4=90]"^.9" | %39
[Q:1/4=83] A3[Q:1/4=74]"^.2" G[Q:1/4=70]"^.6" F4[Q:1/4=77]"^.5" |] %40
[Q:1/4=92]"^Allargando"!<(! F2 B2 A2 B2 | _e2 d2 c4 |!mf! z8 | B2 A2 G4!<)! | A2 c2 d2 c2 | %45
 c3 B A4 | A2 B2 A2 G2 | A3 G F4 ||"_cresc." F2 B2 A2 B2 | _e2 d2 c4 | d2 d2 =e2 =f2 | B2 A2 G4 | %52
!p! A2 c2 d2 c2 | c3 B A4 |[Q:1/4=92] A2[Q:1/4=91]"^.5" B2[Q:1/4=90] A2[Q:1/4=87]"^.1" G2 | %55
[Q:1/4=83] A3[Q:1/4=74]"^.3" G[Q:1/4=70]"^.6" F4[Q:1/4=77]"^.5" || %56
[Q:1/4=92]"^Andante""_legato"!p! ((A2 c2) d2 c2) | (F2 B2 c2 B2) | (F2 B2 c2 B2) | A8 | %60
 (D2 G2 A2 G2) | F8 |[Q:1/4=52]"_Lento"!pp! A4 A2 G2 | F8- | F8- | !fermata!F8 |] %66
V:2
[K:F] x8 | x8 | x8 | x8 | x8 | x8 | x8 | x8 | x8 | x8 | x8 | x8 | x8 | x8 | x8 | x8 ||[M:4/4] x8 | %17
 x8 | x8 | x8 | x8 | x8 | x8 | x8 | x8 | x8 | x8 | x8 | x8 | x8 | x8 | x8 || x8 | x8 | x8 | x8 | %36
 x8 | x8 | x8 | x8 |] x8 | x8 | d2 d2 =e2 f2 | x8 | x8 | x8 | x8 | x8 || x8 | x8 | x8 | x8 | x8 | %53
 x8 | x8 | x8 || x8 | x8 | x8 | x8 | x8 | x8 | x8 | x8 | x8 | x8 |] %66
V:3
!p! G2 B2 c2 B2 | B3 A G4 | e2 d2 c2 B2 | G2 E2 F4 | G2 B2 c2 B2 | B3 A G4 | G2 A2 G2 F2 | %7
 G3 F E4 | E2 A2 G2 A2 | _d2 c2 B4 | c2 c2 =d2 e2 | A2 G2 F4 | G2 B2 c2 B2 | B3 A G4 | %14
 G2 A2 G2 F2 | G3 F E4 ||[M:4/4]!p!"^Cantabile" G2 B2 c2 B2 | B3 A G4 | e2 d2 c2 B2 | G2 E2 F4 | %20
 G2 B2 c2 B2 | B3 A G4 | G2 A2 G2 F2 | G3 F E4 |!<(! E2 A2 G2 A2 | _d2 c2 B4!<)! | %26
!mf! c2 c2 d2 e2 | A2 G2 [B,DF]4 |!p! G2 B2 c2 B2 | B3 A G4 | G2 A2 G2 F2 | G3 F E4 || %32
!p! [EG]2 [FB]2 [Gc]2 [FB]2 | B3 A G4 | [=Ae]2 [^Gd]2 [^Fc]2 [=FB]2 | [EG]2 [=A,E]2 [B,DF]4 | %36
!p! (G2 [FB]2) [Gc]2 [FB]2 | B3 A G4 |"^rit" [B,EG]2 [A,EA]2 [B,EG]2 [CEF]2 | G3 F E4 |] %40
!<(! E2 A2 G2 A2 | [EG_d]2 [EAc]2 [EGB]4 |!mf! z8 | [FA]2 [EG]2 [DF]4!<)! | G2 B2 c2 B2 | B3 A G4 | %46
 [_B,EG]2 [A,EA]2 [B,EG]2 [CEF]2 | G3 F E4 ||"_cresc." [CE]2 [EA]2 [_DG]2 [CA]2 | %49
 [EB_d]2 [E^Fc]2 [=D=FB]4 | [=EBc]2 [FAc]2 [FA=d]2 [_EG_e]2 | [B,FA]2 [B,EG]2 [B,DF]4 | %52
!p! [B,EG]2 [B,EB]2 [CEc]2 [_DGB]2 | B3 A G4 | [CEG]2 [A,EA]2 [B,EG]2 [CEF]2 | G3 F E4 || %56
"_legato"!p! ((G2 B2) c2 B2) | (E2 A2 B2 A2) | (E2 A2 B2 A2) | [B,G]8 | (C2 F2 G2 F2) | [B,E]8 | %62
!pp! G4 G2 F2 | [B,E-]8 | [A,CE-]8 | !fermata![G,B,E]8 |] %66
V:4
 E2 E2 C2 E2 | E2 D2 E4 | E2 E2 E2 E2 | E2 E2 D4 | E2 E2 EA G2 | F2 E2 D4 | E2 E2 E2 E2 | %7
 E2 D2 E4 | C2 E2 E2 E2 | E2 E2 G4 | E2 E2 A2 G2 | F2 E2 D4 | E2 E2 EA G2 | F2 E2 D4 | %14
 E2 E2 E2 E2 | E2 D2 E4 ||[M:4/4] E4- E4 | CEDB,- B,4 | EF^FG CDEB, | [B,E]2 =A,2 [B,D]4 | E4- E4 | %21
 CEDC =B,4 | EDFE D_DC_C | B,3 [B,C] [G,B,]4 | C2 [CE]2 [B,E]2 E2 | [EB]2 [EA]2 [EG]4 | %26
 [EA]2 [EA]2 [FB]2 [EB]2 | [B,F]2 E2 x4 | E4- E4 | CEDC =B,4 | EDFE D_DC_C | B,3 [A,B,] [G,B,]4 || %32
 x8 | E4- E4 | x8 | x8 | x8 | E4 D4 | x8 | ([B,-E]2 [B,-D]2) B,4 |] C4 _D2 E2 | x8 | %42
 [EAc]2 [EAc]2 [FA=d]2 [EGe]2 | x8 | E2 F2 G4 | E4 D4 | x8 | [B,-E]2 [B,D]2 B,4 || x8 | x8 | x8 | %51
 x8 | x8 | [CF]4 =B,4 | x8 | [B,-E]2 [B,-D]2 B,4 || [_DE-]8 | [C-E]8 | ([CE]8 | E8) | C4 _C4 | x8 | %62
 [B,-E]4 [B,D]4 | x8 | x8 | x8 |] %66
V:5
 B,2 B,2 E2 B,2 | C2 B,2 B,4 | B,2 B,2 A,2 A,2 | B,2 =A,2 B,4 | B,2 G,2 A,C E2 | D2 C2 =B,4 | %6
 C2 A,2 B,2 C2 | B,2 A,2 G,4 | A,2 C2 B,2 C2 | B,2 C2 E4 | C2 B,2 B,2 B,2 | B,2 B,2 B,4 | %12
 B,2 G,2 A,C E2 | D2 C2 =B,4 | C2 A,2 B,2 C2 | B,2 A,2 G,4 ||[M:4/4] E,F,^F,G, A,2 G,2 | %17
 F,2 B,,2 E,4 | C2 B,2 A,2 G,2 | C,2 F,2 B,,4 | E,F,^F,G, A,2 G,2 | F,4 G,4 | %22
 C,=B,,D,C, B,,_B,,=A,,_A,, | B,,C,D,B,, [E,,E,]4 | A,,B,,C,_D, E,D,C,A,, | G,,E,,A,,C, E,4 | %26
 A,B,A,G, A,F,G,E, | D,B,,E,C, B,,4 | E,F,^F,G, A,2 G,2 | F,4 G,4 | C,=B,,D,C, B,,_B,,=A,,_A,, | %31
 B,,C,D,B,, [E,,E,]4 || B,2 D2 E2 D2 | C2 _C2 B,4 |[K:treble] [C^F]2 [=B,=F]2 [=A,E]2 [_A,D]2 | %35
[K:bass] [E,B,]2 [C,F,]2 [B,,F,]4 | (E2 D2) E2 D2 | C4 =B,4 |[K:bass] E,D,C,_C, B,,2 A,,2 | %39
 B,,2- [B,,A,]2 [E,G,]4 |] E,4- E,4 | E,4- E,4 | A,4 =B,2 C2 | _B,4- B,4 | B,2 D2 _D4 | %45
 [F,C]4 [G,=B,]4 | _D,2 C,2 B,,2 A,,2 | B,,2- [B,,A,]2 [E,G,]4 || A,2 C2 B,2 A,2 | G,2 =A,2 _A,4 | %50
 G,2 F,2 =B,,2 C,2 | D,2 E,2 B,,4 | E,2 G,2 A,2 =E,2 | F,2 D,2 G,4 | C,2 _C,2 B,,2 =A,,2 | %55
 B,,2- [B,,A,]2 [E,G,]4 || [E,,E,]8- | [E,,E,]8- | [E,,E,]8- | [E,,E,]8 | =A,4 _A,4 | G,8 | %62
 B,,4- [B,,A,]4 | [E,G,]8 | [A,,E,-]8 | !fermata![E,,E,]8 |] %66
V:6
 E,2 G,2 A,2 G,2 | F,2 B,,2 E,4 | G,2 G,2 A,2 F,2 | E,2 C,2 B,,4 | E,2 E,2 E,2 E,2 | F,2 F,2 G,4 | %6
 C,2 C,2 B,,2 A,,2 | B,,2 B,,2 E,4 | E,2 E,2 E,2 A,2 | G,2 A,2 E,4 | A,2 G,2 F,2 E,2 | %11
 D,2 E,2 B,,4 | E,2 E,2 E,2 E,2 | F,2 F,2 G,4 | C,2 C,2 B,,2 A,,2 | B,,2 B,,2 E,4 ||[M:4/4] x8 | %17
 x8 | x8 | x8 | x8 | x8 | x8 | x8 | x8 | x8 | x8 | x8 | x8 | x8 | x8 | x8 || E,8- | E,8 | %34
[K:treble] x8 |[K:bass] x8 | x8 | x8 |[K:bass] x8 | x8 |] A,,4 B,,2 C,2 | B,,2 A,,2 E,,4 | x8 | %43
 D,2 E,2 B,,4 | E,4- E,4 | x8 | x8 | x8 || E,4 =E,2 F,2 | x8 | x8 | x8 | x8 | x8 | x8 | x8 || x8 | %57
 x8 | x8 | x8 | E,8- | E,8 | x8 | x8 | x8 | x8 |] %66
V:7
 x8 | x8 | x8 | x8 | x8 | x8 | x8 | x8 | x8 | x8 | x8 | x8 | x8 | x8 | x8 | x8 ||[M:4/4] x8 | x8 | %18
 x8 | x8 | x8 | x8 | x8 | x8 | x8 | x8 | x8 | x2 B,=A, x4 | x8 | x8 | x8 | x8 || x8 | x8 | x8 | %35
 x8 | x8 | x8 | x8 | x8 |] x8 | x8 | x8 | x8 | x8 | x8 | x8 | x8 || x8 | x8 | x8 | x8 | x8 | x8 | %54
 x8 | x8 || x8 | x8 | x8 | x8 | x8 | x8 | x8 | x8 | x8 | x8 |] %66

